mapstyles/mapsforge_peruskartta/mml/SVRMvas.svg

<?xml version="1.0" encoding="UTF-8" standalone="no"?>
<!-- Created with Inkscape (http://www.inkscape.org/) -->

<svg
   xmlns:dc="http://purl.org/dc/elements/1.1/"
   xmlns:cc="http://creativecommons.org/ns#"
   xmlns:rdf="http://www.w3.org/1999/02/22-rdf-syntax-ns#"
   xmlns:svg="http://www.w3.org/2000/svg"
   xmlns="http://www.w3.org/2000/svg"
   xmlns:sodipodi="http://sodipodi.sourceforge.net/DTD/sodipodi-0.dtd"
   xmlns:inkscape="http://www.inkscape.org/namespaces/inkscape"
   version="1.1"
   width="394"
   height="952"
   id="svg2"
   xml:space="preserve"
   inkscape:version="0.48.4 r9939"
   sodipodi:docname="SVRMvas.svg"><sodipodi:namedview
     pagecolor="#ffffff"
     bordercolor="#666666"
     borderopacity="1"
     objecttolerance="10"
     gridtolerance="10"
     guidetolerance="10"
     inkscape:pageopacity="0"
     inkscape:pageshadow="2"
     inkscape:window-width="1920"
     inkscape:window-height="1012"
     id="namedview11"
     showgrid="false"
     inkscape:zoom="0.33712566"
     inkscape:cx="328.14601"
     inkscape:cy="591.54918"
     inkscape:window-x="-8"
     inkscape:window-y="-8"
     inkscape:window-maximized="1"
     inkscape:current-layer="svg2" /><metadata
     id="metadata8"><rdf:RDF><cc:Work
         rdf:about=""><dc:format>image/svg+xml</dc:format><dc:type
           rdf:resource="http://purl.org/dc/dcmitype/StillImage" /></cc:Work></rdf:RDF></metadata><defs
     id="defs6" /><g
     transform="matrix(1.25,0,0,-1.25,100.625,936.375)"
     id="g10"><g
       transform="scale(0.1,0.1)"
       id="g12"><path
         d="m 1440,720 c 0,397.64 -322.36,720 -720,720 C 322.355,1440 0,1117.64 0,720 0,322.355 322.355,0 720,0 c 397.64,0 720,322.355 720,720"
         inkscape:connector-curvature="0"
         id="path14"
         style="fill:none;stroke:#000000;stroke-width:250;stroke-linecap:butt;stroke-linejoin:miter;stroke-miterlimit:10;stroke-opacity:1;stroke-dasharray:none" /><path
         d="m 870,720 c 0,82.84 -67.16,150 -150,150 -82.84,0 -150,-67.16 -150,-150 0,-82.84 67.16,-150 150,-150 82.84,0 150,67.16 150,150 m -200,720 0,3730 m 150,0 0,-3730"
         inkscape:connector-curvature="0"
         id="path16"
         style="fill:none;stroke:#000000;stroke-width:250;stroke-linecap:butt;stroke-linejoin:miter;stroke-miterlimit:10;stroke-opacity:1;stroke-dasharray:none" /><path
         d="m 870,720 c 0,82.84 -67.16,150 -150,150 -82.84,0 -150,-67.16 -150,-150 0,-82.84 67.16,-150 150,-150 82.84,0 150,67.16 150,150 m -200,720 0,3730 m 150,0 0,-3730 m -80,0 0,3730 m -720,0 0,1500 1500,0 0,-1500 -1500,0 m 100,100 0,1300 1300,0 0,-1300 -1300,0 m 130,130 0,1050 1050,0 0,-1050 -1050,0"
         inkscape:connector-curvature="0"
         id="path18"
         style="fill:none;stroke:#000000;stroke-width:200;stroke-linecap:butt;stroke-linejoin:miter;stroke-miterlimit:10;stroke-opacity:1;stroke-dasharray:none" /><path
         d="m 2220,5920 c 0,800.81 -649.19,1450 -1450,1450 -800.8125,0 -1450,-649.19 -1450,-1450 0,-800.81 649.1875,-1450 1450,-1450 800.81,0 1450,649.19 1450,1450"
         inkscape:connector-curvature="0"
         id="path20"
         style="fill:none;stroke:#000000;stroke-width:250;stroke-linecap:butt;stroke-linejoin:miter;stroke-miterlimit:10;stroke-opacity:1;stroke-dasharray:none" /></g></g></svg>

<svg xmlns="http://www.w3.org/2000/svg" xml:space="preserve" width="394" height="952"><path d="M1440 720c0 397.64-322.36 720-720 720-397.645 0-720-322.36-720-720C0 322.355 322.355 0 720 0c397.64 0 720 322.355 720 720" style="fill:none;stroke:#000;stroke-width:250;stroke-linecap:butt;stroke-linejoin:miter;stroke-miterlimit:10;stroke-opacity:1;stroke-dasharray:none" transform="matrix(.13 0 0 -.13 100.625 936.375)"/><path d="M870 720c0 82.84-67.16 150-150 150s-150-67.16-150-150 67.16-150 150-150 150 67.16 150 150m-200 720v3730m150 0V1440" style="fill:none;stroke:#000;stroke-width:250;stroke-linecap:butt;stroke-linejoin:miter;stroke-miterlimit:10;stroke-opacity:1;stroke-dasharray:none" transform="matrix(.13 0 0 -.13 100.625 936.375)"/><path d="M870 720c0 82.84-67.16 150-150 150s-150-67.16-150-150 67.16-150 150-150 150 67.16 150 150m-200 720v3730m150 0V1440m-80 0v3730m-720 0v1500h1500V5170H20m100 100v1300h1300V5270H120m130 130v1050h1050V5400H250" style="fill:none;stroke:#000;stroke-width:200;stroke-linecap:butt;stroke-linejoin:miter;stroke-miterlimit:10;stroke-opacity:1;stroke-dasharray:none" transform="matrix(.13 0 0 -.13 100.625 936.375)"/><path d="M2220 5920c0 800.81-649.19 1450-1450 1450-800.813 0-1450-649.19-1450-1450S-30.812 4470 770 4470c800.81 0 1450 649.19 1450 1450" style="fill:none;stroke:#000;stroke-width:250;stroke-linecap:butt;stroke-linejoin:miter;stroke-miterlimit:10;stroke-opacity:1;stroke-dasharray:none" transform="matrix(.13 0 0 -.13 100.625 936.375)"/></svg>
